src/images/home.svg

<svg width="24" height="24" fill="none" xmlns="http://www.w3.org/2000/svg"><mask id="a" style="mask-type:alpha" maskUnits="userSpaceOnUse" x="0" y="0" width="24" height="24"><path fill="#fff" d="M0 0h24v24H0z"/></mask><g mask="url(#a)"><path d="M6 19h3v-6h6v6h3v-9l-6-4.5L6 10v9zm-2 2V9l8-6 8 6v12h-7v-6h-2v6H4z" fill="#fff"/></g></svg>

<svg width="24" height="24" viewBox="0 0 24 24" fill="none" xmlns="http://www.w3.org/2000/svg">
<mask id="mask0_40425_311" style="mask-type:alpha" maskUnits="userSpaceOnUse" x="0" y="0" width="24" height="24">
<rect width="24" height="24" fill="white"/>
</mask>
<g mask="url(#mask0_40425_311)">
<path d="M6 19H9V13H15V19H18V10L12 5.5L6 10V19ZM4 21V9L12 3L20 9V21H13V15H11V21H4Z" fill="white"/>
</g>
</svg>
